src/16/panel/skype-status-connecting-1.svg

<svg xmlns="http://www.w3.org/2000/svg" width="16" height="16" version="1">
 <defs>
  <style id="current-color-scheme" type="text/css">
   .ColorScheme-Text { color:#dfdfdf; } .ColorScheme-Highlight { color:#5294e2; }
  </style>
 </defs>
 <path style="fill:currentColor" class="ColorScheme-Text" d="M 4.5 1 A 3.5 3.5 0 0 0 1 4.5 A 3.5 3.5 0 0 0 2.0859375 7.0292969 A 6 6 0 0 0 2 8 A 6 6 0 0 0 8 14 A 6 6 0 0 0 8.9707031 13.917969 A 3.5 3.5 0 0 0 11.5 15 A 3.5 3.5 0 0 0 15 11.5 A 3.5 3.5 0 0 0 13.914062 8.9707031 A 6 6 0 0 0 14 8 A 6 6 0 0 0 8 2 A 6 6 0 0 0 7.0292969 2.0820312 A 3.5 3.5 0 0 0 4.5 1 z M 8 2.9863281 L 8 4.0371094 C 8.525978 4.0797235 9.1296326 4.1772766 9.765625 4.4472656 C 10.894979 4.9266927 12 6.1530065 12 7.9863281 A 1.0001 1.0001 0 1 1 10 7.9863281 C 10 6.8196516 9.604971 6.5525146 8.984375 6.2890625 C 8.6887748 6.1635758 8.3397391 6.093234 8 6.0527344 L 8 6.9863281 L 5 4.9863281 L 8 2.9863281 z M 5.015625 6.9863281 A 1.0001 1.0001 0 0 1 6 8 C 6 9.1666667 6.3980887 9.4387454 7.0195312 9.7050781 C 7.314292 9.8314041 7.6620023 9.9016878 8 9.9433594 L 8 9 L 11 11 L 8 13 L 8 11.962891 C 7.4772123 11.917708 6.857818 11.813786 6.2304688 11.544922 C 5.1019114 11.061254 4 9.8333331 4 8 A 1.0001 1.0001 0 0 1 5.015625 6.9863281 z"/>
 <path style="fill:currentColor" class="ColorScheme-Text" d="M -25.069,-9.0812"/>
</svg>

<svg xmlns="http://www.w3.org/2000/svg" width="16" height="16" version="1"><defs><style id="current-color-scheme" type="text/css">.ColorScheme-Text{color:#dfdfdf}</style></defs><path class="ColorScheme-Text" d="M4.5 1A3.5 3.5 0 0 0 1 4.5a3.5 3.5 0 0 0 1.086 2.53A6 6 0 0 0 2 8a6 6 0 0 0 6 6 6 6 0 0 0 .97-.082A3.5 3.5 0 0 0 11.5 15a3.5 3.5 0 0 0 3.5-3.5 3.5 3.5 0 0 0-1.086-2.53A6 6 0 0 0 14 8a6 6 0 0 0-6-6 6 6 0 0 0-.97.082A3.5 3.5 0 0 0 4.5 1zM8 2.986v1.051c.526.043 1.13.14 1.766.41C10.895 4.927 12 6.153 12 7.987a1 1 0 1 1-2 0c0-1.167-.395-1.434-1.016-1.698A3.692 3.692 0 0 0 8 6.053v.933l-3-2 3-2zm-2.984 4A1 1 0 0 1 6 8c0 1.167.398 1.439 1.02 1.705.294.126.642.197.98.238V9l3 2-3 2v-1.037a5.704 5.704 0 0 1-1.77-.418C5.102 11.06 4 9.833 4 8a1 1 0 0 1 1.016-1.014z" fill="currentColor"/></svg>
